X: 1
T: SHEPHERD'S HEY
S: ALP from Powell (1927)
O: Bucknell
P: ?A.B4
B: Morris Ring
Z: 2005 John Chambers <jc@trillian.mit.edu>
M: C|
L: 1/8
K: G
P: A
   BddB e2B2 | BddB A4 | c2B2 AGGA | B2A2 G4 ||
P: B
   d2A2 B2G2 | d2A2 B4 | d2B2 AGGA | B2A2 G4 |
   B2G2 c4   | B2G2 A4 | B2AB c2Bc | d2A2 G4 ||
